src/lib/packages/icons/src/assets/line/badge-discount-alt.svg

<svg width="24" height="24" viewBox="0 0 24 24" fill="none" xmlns="http://www.w3.org/2000/svg">
<path d="M12.0001 21.75C11.3971 21.75 10.8311 21.515 10.4061 21.089L9.09002 19.773C8.95002 19.634 8.75711 19.554 8.56011 19.554H6.70208C5.45908 19.554 4.44707 18.543 4.44707 17.299V15.441C4.44707 15.241 4.3691 15.052 4.2271 14.91L2.91106 13.594C2.03306 12.715 2.03306 11.285 2.91106 10.406L4.2271 9.08898C4.3671 8.94898 4.44707 8.75598 4.44707 8.55898V6.70098C4.44707 5.45798 5.45908 4.44601 6.70208 4.44601H8.56011C8.75711 4.44601 8.95102 4.36598 9.09002 4.22698L10.4061 2.911C11.2561 2.059 12.744 2.059 13.594 2.911L14.9101 4.22698C15.0521 4.36898 15.2401 4.44601 15.4411 4.44601H17.298C18.541 4.44601 19.553 5.45698 19.553 6.70098V8.55898C19.553 8.75598 19.633 8.94998 19.773 9.08898L21.089 10.405C21.967 11.284 21.967 12.714 21.089 13.593L19.773 14.909C19.631 15.051 19.553 15.239 19.553 15.44V17.298C19.553 18.541 18.541 19.553 17.298 19.553H15.4411C15.2401 19.553 15.0511 19.631 14.9101 19.772L13.594 21.088C13.169 21.515 12.6031 21.75 12.0001 21.75ZM6.7011 5.94601C6.2851 5.94601 5.9461 6.28498 5.9461 6.70098V8.55898C5.9461 9.15998 5.71204 9.72499 5.28704 10.15L3.971 11.466C3.677 11.76 3.677 12.239 3.971 12.534L5.28704 13.85C5.71204 14.276 5.9461 14.84 5.9461 15.441V17.299C5.9461 17.715 6.2851 18.054 6.7011 18.054H8.55901C9.15201 18.054 9.73108 18.294 10.1501 18.713L11.466 20.029C11.751 20.314 12.247 20.314 12.532 20.029L13.8481 18.712C14.2731 18.287 14.838 18.053 15.44 18.053H17.297C17.713 18.053 18.0521 17.714 18.0521 17.298V15.44C18.0521 14.839 18.2861 14.274 18.7111 13.849L20.027 12.533C20.321 12.239 20.321 11.76 20.027 11.465L18.7111 10.149C18.2861 9.72398 18.0521 9.15901 18.0521 8.55801V6.7C18.0521 6.284 17.713 5.945 17.297 5.945H15.44C14.838 5.945 14.2731 5.711 13.8481 5.286L12.532 3.96999C12.247 3.68499 11.751 3.68499 11.466 3.96999L10.1501 5.28698C9.73108 5.70598 9.15201 5.94601 8.55901 5.94601H6.7011ZM20.5601 13.064H20.57H20.5601ZM10.0301 15.03L15.0301 10.03C15.3231 9.73699 15.3231 9.26199 15.0301 8.96899C14.7371 8.67599 14.262 8.67599 13.969 8.96899L8.96905 13.969C8.67605 14.262 8.67605 14.737 8.96905 15.03C9.11505 15.176 9.30708 15.25 9.49908 15.25C9.69108 15.25 9.88408 15.177 10.0301 15.03ZM10.502 9.49999C10.502 8.94799 10.055 8.49999 9.50201 8.49999H9.492C8.94 8.49999 8.497 8.94799 8.497 9.49999C8.497 10.052 8.95001 10.5 9.50201 10.5C10.055 10.5 10.502 10.052 10.502 9.49999ZM15.502 14.5C15.502 13.948 15.055 13.5 14.502 13.5H14.492C13.94 13.5 13.497 13.948 13.497 14.5C13.497 15.052 13.95 15.5 14.502 15.5C15.055 15.5 15.502 15.052 15.502 14.5Z" fill="currentColor"/>
</svg>

<svg xmlns="http://www.w3.org/2000/svg" width="24" height="24" fill="none"><path fill="currentColor" d="M12 21.75a2.236 2.236 0 0 1-1.594-.661L9.09 19.773a.758.758 0 0 0-.53-.219H6.702a2.257 2.257 0 0 1-2.255-2.255v-1.858c0-.2-.078-.389-.22-.531l-1.316-1.316a2.259 2.259 0 0 1 0-3.188l1.316-1.317c.14-.14.22-.333.22-.53V6.701a2.258 2.258 0 0 1 2.255-2.255H8.56c.197 0 .391-.08.53-.219l1.316-1.316c.85-.852 2.338-.852 3.188 0l1.316 1.316c.142.142.33.219.531.219h1.857a2.257 2.257 0 0 1 2.255 2.255v1.858c0 .197.08.391.22.53l1.316 1.316a2.259 2.259 0 0 1 0 3.188l-1.316 1.316a.745.745 0 0 0-.22.531v1.858a2.258 2.258 0 0 1-2.255 2.255h-1.857a.746.746 0 0 0-.53.219l-1.317 1.316c-.425.427-.99.662-1.594.662ZM6.701 5.946a.756.756 0 0 0-.755.755v1.858c0 .601-.234 1.166-.659 1.591l-1.316 1.316a.757.757 0 0 0 0 1.068l1.316 1.316c.425.426.66.99.66 1.591v1.858c0 .416.338.755.754.755H8.56c.593 0 1.172.24 1.591.659l1.316 1.316a.771.771 0 0 0 1.066 0l1.316-1.317c.425-.425.99-.659 1.592-.659h1.857a.756.756 0 0 0 .755-.755V15.44c0-.601.234-1.166.66-1.591l1.315-1.316a.757.757 0 0 0 0-1.068l-1.316-1.316a2.235 2.235 0 0 1-.659-1.591V6.7a.756.756 0 0 0-.755-.755H15.44a2.236 2.236 0 0 1-1.592-.659L12.532 3.97a.771.771 0 0 0-1.066 0L10.15 5.287a2.264 2.264 0 0 1-1.591.659H6.701Zm13.86 7.118h.009-.01ZM10.03 15.03l5-5a.75.75 0 1 0-1.062-1.061l-5 5a.75.75 0 1 0 1.061 1.061Zm.471-5.53a1 1 0 0 0-1-1h-.01a.996.996 0 0 0-.995 1c0 .552.453 1 1.005 1a1 1 0 0 0 1-1Zm5 5a1 1 0 0 0-1-1h-.01a.996.996 0 0 0-.995 1c0 .552.453 1 1.005 1a1 1 0 0 0 1-1Z"/></svg>
